img/icon-youtube.svg

<svg fill="none" height="24" viewBox="0 0 24 24" width="24" xmlns="http://www.w3.org/2000/svg"><path d="m21.58 7.19c-.23-.86-.91-1.54-1.77-1.77-1.56-.42-7.81-.42-7.81-.42s-6.25 0-7.81.42c-.86.23-1.54.91-1.77 1.77-.42 1.56-.42 4.81-.42 4.81s0 3.25.42 4.81c.23.86.91 1.54 1.77 1.77 1.56.42 7.81.42 7.81.42s6.25 0 7.81-.42c.86-.23 1.54-.91 1.77-1.77.42-1.56.42-4.81.42-4.81s0-3.25-.42-4.81z" fill="#fff"/><path d="m10 15 5-3-5-3z" fill="#1a1d2e"/></svg>

<svg width="24" height="24" viewBox="0 0 24 24" fill="none" xmlns="http://www.w3.org/2000/svg">
<path d="M21.58 7.19C21.35 6.33 20.67 5.65 19.81 5.42C18.25 5 12 5 12 5C12 5 5.75 5 4.19 5.42C3.33 5.65 2.65 6.33 2.42 7.19C2 8.75 2 12 2 12C2 12 2 15.25 2.42 16.81C2.65 17.67 3.33 18.35 4.19 18.58C5.75 19 12 19 12 19C12 19 18.25 19 19.81 18.58C20.67 18.35 21.35 17.67 21.58 16.81C22 15.25 22 12 22 12C22 12 22 8.75 21.58 7.19Z" fill="white"/>
<path d="M10 15L15 12L10 9V15Z" fill="#1a1d2e"/>
</svg>
